X:83
T:Malta March,The. RH.083
R:March
S:Rev.R.Harrison’s MS,c1815,Cumbria
N:15 bars * 2 + 12 bars * 2 = 54.(!)
O:England
A:Temple Sowerby,Cumbria
Z:vmp.Simon Wilson. Review PJH, 2008.
M:C|
L:1/8
Q:1/2=60
K:D
FG|A>GF>G AGFG|A2f2 f2ed|dcBA BAGF|G2EE E2FG|!
AFDA BGEd|ceAf gfed|dcBA cBA^G|Ac/d/ ec AAAA|!
Ac/d/ ec AAAA|Ad/e/ fd AAAA|Ad/e/ fd AAAA|!
BABc dAGF|B2AA A2GF|gfed dcde|f4 e2:|!
|:cd|edcB AGFE|F2DD D2d/c/d/e/|fedc BAGF|!
G2EE E2z2|AAAA AAAA|BBBB BBBB|!
AA/A/ AA AAAA|BB/B/ BB BBBB|BABc dAGF|!
B2AA A2GF|gfed dcde|f2dd d2:|

